assets/logos/icons/ship.svg

<svg height="24" viewBox="0 0 24 24" width="24" xmlns="http://www.w3.org/2000/svg"><path d="m10.5308033 7.77291134c-.3533899.04540616-.66235929.07107051-.93579225.09476068-.90124296.07600596-1.10557735.10561867-1.47476121.50242901-.81832465.88048463-1.32471856 2.01662567-1.61690686 2.87736847l2.09960983-.1697795c.36720961-.0305998.67914036-.2842821.79463371-.6485184.31587924-.9979484.69986998-1.87942012 1.13321678-2.65626026zm5.6966847 5.69649866c-.7778527.4323456-1.658366.8163237-2.6573341 1.1312056-.3632612.1154895-.6179388.4293843-.6475525.7985561l-.1697851 2.0975671c.8587967-.2921788 1.9949749-.7995432 2.8745011-1.6178412.3978104-.3691718.4284112-.5734995.5054068-1.4757001.0227038-.273424.0493561-.5813962.0947638-.9337875zm-5.6581869 6.53059.3849778-4.7607369c.0947638-1.1726634.8884104-2.161728 2.0216271-2.5200418 6.1596452-1.9465423 6.9878411-6.76255627 7.0579268-8.74956923-1.9860907.08094141-6.8160817.92391661-8.7538034 7.05473503-.3573384 1.1321927-1.34544817 1.9258133-2.51913697 2.0215611l-4.76089243.3839782.21420561-1.2516306c.02072958-.1253605.54291744-3.08959297 2.45990958-5.15162479.90124296-.96932276 1.76003965-1.04236745 2.75505925-1.12627014.69789566-.05922542 1.55669236-.13227011 2.85081016-.50539028 3.6977613-3.8407687 8.7547906-3.37979749 8.8179664-3.37584913l.8005565.0819285.0819311.79954322c.0059228.06712215.4609863 5.12299912-3.3739851 8.81767842-.3741195 1.2950626-.4471665 2.1538313-.5063939 2.8526913-.0848926.994-.1579396 1.8527686-1.1282812 2.7539821-2.061112 1.9169296-5.0244541 2.4391004-5.1498187 2.4608164zm-9.5693011 3 1.16745741-2.4608086c.21932284-.4618868 2.17187837-4.5392992 3.34224714-5.7085715.34839336-.3473854 1.07429372-.7559029 1.84580548-.8306199l.18729782 1.9309973c-.2697865.0261995-.5783912.1940701-.66087988.2726685-.3862411.3852291-1.00636187 1.4118598-1.61580763 2.5297035 1.1179642-.6093801 2.14470563-1.2304043 2.53094673-1.6156335.0776364-.0815094.24552512-.3910512.27172741-.6627493l1.93120552.1911591c-.07569549.7714285-.48425706 1.4962803-.83070951 1.8436657-1.16939832 1.1702426-5.24725038 3.1225876-5.70918697 3.3418868z" fill="#492f5c" fill-rule="evenodd"/></svg>

<svg xmlns="http://www.w3.org/2000/svg" width="24" height="24" viewBox="0 0 24 24">
  <path fill="#492F5C" fill-rule="evenodd" d="M10.5308033,7.77291134 C10.1774134,7.8183175 9.86844401,7.84398185 9.59501105,7.86767202 C8.69376809,7.94367798 8.4894337,7.97329069 8.12024984,8.37010103 C7.30192519,9.25058566 6.79553128,10.3867267 6.50334298,11.2474695 L8.60295281,11.07769 C8.97016242,11.0470902 9.28209317,10.7934079 9.39758652,10.4291716 C9.71346576,9.4312232 10.0974565,8.54975148 10.5308033,7.77291134 Z M16.227488,13.46941 C15.4496353,13.9017556 14.569122,14.2857337 13.5701539,14.6006156 C13.2068927,14.7161051 12.9522151,15.0299999 12.9226014,15.3991717 L12.7528163,17.4967388 C13.611613,17.20456 14.7477912,16.6971956 15.6273174,15.8788976 C16.0251278,15.5097258 16.0557286,15.3053981 16.1327242,14.4031975 C16.155428,14.1297735 16.1820803,13.8218013 16.227488,13.46941 Z M10.5693011,20 L10.9542789,15.2392631 C11.0490427,14.0665997 11.8426893,13.0775351 12.975906,12.7192213 C19.1355512,10.772679 19.9637471,5.95666503 20.0338328,3.96965207 C18.0477421,4.05059348 13.2177511,4.89356868 11.2800294,11.0243871 C10.922691,12.1565798 9.93458123,12.9502004 8.76089243,13.0459482 L4,13.4299264 L4.21420561,12.1782958 C4.23493519,12.0529353 4.75712305,9.08870283 6.67411519,7.02667101 C7.57535815,6.05734825 8.43415484,5.98430356 9.42917444,5.90040087 C10.1270701,5.84117545 10.9858668,5.76813076 12.2799846,5.39501059 C15.9777459,1.55424189 21.0347752,2.0152131 21.097951,2.01916146 L21.8985075,2.10108996 L21.9804386,2.90063318 C21.9863614,2.96775533 22.4414249,8.0236323 18.6064535,11.7183116 C18.232334,13.0133742 18.159287,13.8721429 18.1000596,14.5710029 C18.015167,15.5650029 17.94212,16.4237715 16.9717784,17.324985 C14.9106664,19.2419146 11.9473243,19.7640854 11.8219597,19.7858014 L10.5693011,20 Z M1,23 L2.16745741,20.5391914 C2.38678025,20.0773046 4.33933578,15.9998922 5.50970455,14.8306199 C5.85809791,14.4832345 6.58399827,14.074717 7.35551003,14 L7.54280785,15.9309973 C7.27302135,15.9571968 6.96441665,16.1250674 6.88192797,16.2036658 C6.49568687,16.5888949 5.8755661,17.6155256 5.26612034,18.7333693 C6.38408454,18.1239892 7.41082597,17.502965 7.79706707,17.1177358 C7.87470347,17.0362264 8.04259219,16.7266846 8.06879448,16.4549865 L10,16.6461456 C9.92430451,17.4175741 9.51574294,18.1424259 9.16929049,18.4898113 C7.99989217,19.6600539 3.92204011,21.6123989 3.46010352,21.8316981 L1,23 Z"/>
</svg>
